svgs/sharp-light/circle-u.svg

<svg xmlns="http://www.w3.org/2000/svg" viewBox="0 0 512 512"><!--! Font Awesome Pro 6.6.0 by @fontawesome - https://fontawesome.com License - https://fontawesome.com/license (Commercial License) Copyright 2024 Fonticons, Inc. --><path d="M256 32a224 224 0 1 1 0 448 224 224 0 1 1 0-448zm0 480A256 256 0 1 0 256 0a256 256 0 1 0 0 512zM176 160l0-16-32 0 0 16 0 128c0 61.9 50.1 112 112 112s112-50.1 112-112l0-128 0-16-32 0 0 16 0 128c0 44.2-35.8 80-80 80s-80-35.8-80-80l0-128z"/></svg>

<svg xmlns="http://www.w3.org/2000/svg" viewBox="0 0 512 512"><!--! Font Awesome Pro 6.5.2 by @fontawesome - https://fontawesome.com License - https://fontawesome.com/license (Commercial License) Copyright 2024 Fonticons, Inc. --><path d="M256 32a224 224 0 1 1 0 448 224 224 0 1 1 0-448zm0 480A256 256 0 1 0 256 0a256 256 0 1 0 0 512zM176 160V144H144v16V288c0 61.9 50.1 112 112 112s112-50.1 112-112V160 144H336v16V288c0 44.2-35.8 80-80 80s-80-35.8-80-80V160z"/></svg>
